X:1
T:Title
%%score 1 2 3
L:1/8
Q:1/4=90
M:2/4
K:A
V:1 treble nm="Grand Piano"
V:2 bass nm="Grand Piano, Melody"
V:3 bass nm="Grand Piano"
V:1
 z2 cB | A>B AB | c2 cd | e>e ef | e2 cB | A>G Ac | e2 cd | c4 | c4 | z2 cB | A>B AB | c2 cd | %12
 e>e ef | e2 cB | A>G Ac | e2 cd | c4 | c4 | z2 ef | c2 e2 | e>e gg | f>f ef | c2 cc | A>A cc | %24
 e2 cd | c4 | c4 |] %27
V:2
 z2 F,G, | A,>G, A,B, | A,G, F,A, | B,>A, B,C | B,2 A,B, | C>C F,C | B,A, F,A, | F,4 | F,4 | %9
 z2 F,G, | A,>G, A,B, | A,G, F,A, | B,>A, B,C | B,2 A,B, | C>C F,C | B,A, F,A, | F,4 | F,4 | %18
 z2[K:treble] CE | F>C EB, | C>C EE | C>C[K:bass] B,A, | F,2 CC | E>E CC | B,[K:bass]A, F,A, | %25
 F,4 | F,4 |] %27
V:3
 z2 F,2 | F,>E, F,G, | F,2 C,D, | E,>D, E,F, | E,2 C,E, | F,>F, A,F, | F,2 C,C, | F,4 | F,4 | %9
 z2 F,2 | F,>E, F,G, | F,2 C,D, | E,>D, E,F, | E,2 C,E, | F,>F, A,F, | F,2 C,C, | F,4 | F,4 | %18
 z2 A,G, | F,>C, E,2 | E,>E, [C,C][C,C] | A,>A, G,A, | F,2 F,F, | A,>A, F,F, | E,2 C,C, | F,4 | %26
 F,4 |] %27

